!!!COM: Palestrina, Giovanni Perluigi da
!!!OPR: Missa De beata virgine (1567)
!!!OTL: Gloria
**kern	**kern	**kern	**kern
*Ibass	*Itenor	*Icalto	*Icant
!Bassus	!Tenor	!Altus	!Cantus
*clefF4	*clefGv2	*clefG2	*clefG2
*k[b-]	*k[b-]	*k[b-]	*k[b-]
*?:X	*?:X	*?:X	*?:X
*M4/2	*M4/2	*M4/2	*M4/2
=1	=1	=1	=1
0r	1d	1r	0r
.	1e	[1g	.
=2	=2	=2	=2
1G	1B	1g]	1dd
1C	2c	1g	1ee
.	[2e	.	.
=3	=3	=3	=3
1E	4e]	1g	2b
.	4d	.	.
.	1c	.	2cc
1D	.	1f	1dd
.	2B	.	.
=4	=4	=4	=4
1C	2c	2.e	2.g
.	2.e	.	.
.	.	4f	4a
1r	.	2g	2b
.	4d	.	.
.	4c	[2a	[2cc
.	4B	.	.
=5	=5	=5	=5
0r	2A	2a]	2cc]
.	2B	1g	2b
.	2c	.	2a
.	2d	2f#	2a
=6	=6	=6	=6
1c	2e	1g	1g
.	1g	.	.
1A	.	1r	2r
.	2f	.	[2cc
=7	=7	=7	=7
1G	2e	1g	2cc]
.	2.d	.	2b
2A	.	1e	2a
.	4c	.	.
2E	[2c	.	2g
=8	=8	=8	=8
2F	2c]	2d	2a
2G	2B	2d	1g
1D	1A	1d	.
.	.	.	2f#
=9	=9	=9	=9
2r	1G	2.B	1g
1G	.	.	.
.	.	4c	.
.	2r	1d	1r
2F	2d	.	.
=10	=10	=10	=10
2E	2c	0r	2r
2D	2B	.	1dd
1F	1A	.	.
.	.	.	2cc
=11	=11	=11	=11
1G	1G	2r	1b
.	.	1g	.
1r	1d	.	1a
.	.	2f	.
=12	=12	=12	=12
0r	2c	2e	2cc
.	2B	2d	1dd
.	2A	1f	.
.	2A	.	[2cc
=13	=13	=13	=13
1r	2G	1g	2cc]
.	1g	.	2b
2r	.	1d	[1a
[2d	2f	.	.
=14	=14	=14	=14
2d]	1e	1r	1a]
2c	.	.	.
2B	2d	2r	2.g
[2c	2e	2g	.
.	.	.	4f
=15	=15	=15	=15
4c]	1c	1e	2g
4B	.	.	.
4A	.	.	1a
4G	.	.	.
2F	2d	2f	.
2G	[2e	2e	[2g
=16	=16	=16	=16
1A	4e]	1c	2g]
.	4d	.	.
.	1c	.	2f#
1G	.	2r	[1g
.	2B	2d	.
=17	=17	=17	=17
2r	2c	2e	1g]
2G	2B	2d	.
2A	1r	2c	1r
2G	.	2B	.
=18	=18	=18	=18
2F	2r	2A	0r
2E	2G	2c	.
2D	1A	1d	.
2F	.	.	.
=19	=19	=19	=19
1G	1B	2r	1r
.	.	2d	.
1C	1c	1e	1g
=20	=20	=20	=20
0r	2A	2f#	2a
.	2G	2g	2b
.	2c	2e	2cc
.	[2d	2f#	2a
=21	=21	=21	=21
1G	2d]	4g	1g
.	.	4f	.
.	2g	4e	.
.	.	4d	.
2A	2f	1c	1cc
[2c	2e	.	.
=22	=22	=22	=22
2c]	2d	2G	1dd
2B	2d	2g	.
1A	2c	2a	1r
.	[2e	2cc	.
=23	=23	=23	=23
2G	4e]	2b	1dd
.	4d	.	.
2F	1d	2.a	.
1E	.	.	2ee
.	.	4g	.
.	2c#	2g	[2gg
=24	=24	=24	=24
1D	1d	2b-	2gg]
.	.	1a	2ff
1r	1c	.	2.ee
.	.	4g	.
.	.	4f	4dd
=25	=25	=25	=25
1r	0r	4e	2cc
.	.	4f	.
.	.	1g	2b
1d	.	.	1a
.	.	2f	.
=26	=26	=26	=26
2c	1g	2e	2r
2B	.	2d	1dd
2.A	2f	2r	.
.	2e	[2a	[2cc
4G	.	.	.
=27	=27	=27	=27
2F	1d	2a]	2cc]
2G	.	1g	2b
1D	2d	.	1a
.	2d	2f	.
=28	=28	=28	=28
2r	2.g	2e	2g
1G	.	2d	2dd
.	4f	.	.
.	2e	2r	2.gg
2G	2d	2g	.
.	.	.	4ff
=29	=29	=29	=29
2c	2c	2g	2ee
2B	2d	2g	1dd
2A	1e	1a	.
2A	.	.	2cc#
=30	=30	=30	=30
2B	1d	2r	1dd
2d	.	2d	.
2c	1r	2e	1g
2B	.	[2g	.
=31	=31	=31	=31
2A	1r	2g]	2a
2A	.	2f	1cc
1G	2r	2e	.
.	2G	2d	2b
=32	=32	=32	=32
0r	2A	2.c	1a
.	2c	.	.
.	.	4d	.
.	2c	4e	2g
.	.	4f	.
.	2B	[2g	2g
=33	=33	=33	=33
2r	2c	2g]	0a
1d	2d	2f	.
.	1A	2e	.
2c	.	2e	.
=34	=34	=34	=34
2B	0r	2d	2r
2A	.	2c	2a
[1B-	.	[1d	2g
.	.	.	2f
=35	=35	=35	=35
1B-]	2r	1d]	1g
.	1d	.	.
1A	.	1e	2a
.	2c	.	2cc
=36	=36	=36	=36
1r	2B	2r	2dd
.	2A	2c	2.ee
2r	1B-	1d	.
.	.	.	4dd
2G	.	.	2dd
=37	=37	=37	=37
1A	2A	4f	4cc
.	.	4e	4a
.	2c	1a	2.ee
2B-	1d	.	.
.	.	.	4dd
2B-	.	2g	[2dd
=38	=38	=38	=38
1A	2e	1a	2dd]
.	2e	.	2cc#
2.D	1d	2r	2dd
.	.	[2a	[2ff
4E	.	.	.
=39	=39	=39	=39
2F	1c	2a]	2ff]
2C	.	2a	1ee
1D	1f	1a	.
.	.	.	[2dd
=40	=40	=40	=40
2A	1e	1a	2dd]
2A	.	.	2cc#
1B	2d	1r	1dd
.	2d	.	.
=41	=41	=41	=41
1c	1e	0r	0r
1d	1f	.	.
=42	=42	=42	=42
2B	1g	0r	0r
1c	.	.	.
.	2e	.	.
2A	[2f	.	.
=43	=43	=43	=43
1B-	2f]	0r	0r
.	2d	.	.
2G	1e	.	.
[2A	.	.	.
=44	=44	=44	=44
2A]	2c	0r	0r
2G	1d	.	.
2F	.	.	.
4E	2c	.	.
4D	.	.	.
=45	=45	=45	=45
4E	1B	0r	1g
4F	.	.	.
1G	.	.	.
.	1A	.	[1cc
2F#	.	.	.
=46	=46	=46	=46
1G	1G	2r	2cc]
.	.	1g	4b
.	.	.	4a
1r	1r	.	2b
.	.	2e	2cc
=47	=47	=47	=47
0r	2r	2f	1dd
.	1g	2g	.
.	.	2c	1ee
.	2e	[2cc	.
=48	=48	=48	=48
0r	2f	2cc]	1dd
.	2g	2b	.
.	1c	2a	2cc
.	.	[2g	2b
=49	=49	=49	=49
0r	1d	2g]	1a
.	.	2f#	.
.	1e	1g	2g
.	.	.	[2ee
=50	=50	=50	=50
0r	1f	2r	2ee]
.	.	1a	2dd
.	2e	.	2cc
.	2e	2g	4b
.	.	.	4cc
=51	=51	=51	=51
0r	2d	2f	4dd
.	.	.	8cc
.	.	.	8dd
.	2c	4e	2.ee
.	.	4f	.
.	1B-	4g	.
.	.	4f	4dd
.	.	4e	[2dd
.	.	4d	.
=52	=52	=52	=52
1r	1A	1e	2dd]
.	.	.	2cc#
2r	1d	2d	1dd
[2d	.	[2f	.
=53	=53	=53	=53
2d]	2r	2f]	0r
2c	1g	2e	.
2.B-	.	2.d	.
.	2f	.	.
4A	.	4c	.
=54	=54	=54	=54
2G	2e	2B-	1r
2F	1d	2A	.
1E	.	2.G	2r
.	2c#	.	[2gg
.	.	4A	.
=55	=55	=55	=55
1D	1d	4B-	2gg]
.	.	4c	.
.	.	2.d	2ff
1A	2r	.	2.ee
.	.	4c	.
.	[2e	2c	.
.	.	.	4dd
=56	=56	=56	=56
2r	2e]	1A	4cc
.	.	.	4b-
2A	2f	.	4a
.	.	.	4g
2B-	2d	1r	2f
2G	[2e	.	2g
=57	=57	=57	=57
1A	2e]	2r	1e
.	2c	2a	.
2G	2d	2b-	1r
[2G	[2e	2g	.
=58	=58	=58	=58
2G]	4e]	1a	1r
.	4d	.	.
2F	1d	.	.
1E	.	2g	1ee
.	2c#	2g	.
=59	=59	=59	=59
2D	1d	1f	2ff
1d	.	.	2dd
.	1A	2e	1ee
2c	.	2a	.
=60	=60	=60	=60
2G	2r	2b-	2dd
2B-	2d	2g	2dd
2A	2e	1a	2dd
2F	2f	.	2cc
=61	=61	=61	=61
1G	2d	2g	1b-
.	1e	1g	.
[1A	.	.	[1a
.	[2d	2f	.
=62	=62	=62	=62
1A]	2d]	1e	0a]
.	2c#	.	.
1D	1d	1f#	.
=63	=63	=63	=63
0r	0r	2r	1ff
.	.	2f	.
.	.	2g	2ee
.	.	2a	2ff
=64	=64	=64	=64
2r	0r	1b-	1dd
2r	.	.	.
1F	.	1a	2.cc
.	.	.	4dd
=65	=65	=65	=65
2G	0r	2g	2ee
2A	.	4f	2.ff
.	.	4e	.
1B-	.	1d	.
.	.	.	4ee
.	.	.	[2dd
=66	=66	=66	=66
1A	2r	1e	2dd]
.	1a	.	2cc#
2F	.	1d	2dd
2G	2g	.	[2dd
=67	=67	=67	=67
2D	2f	0r	2dd]
2A	2.e	.	2cc
2G	.	.	2b
.	4d	.	.
2F	[2d	.	2a
=68	=68	=68	=68
2E	2d]	2r	2g
2E	2c#	1g	2g
1D	1d	.	2r
.	.	2f	[2dd
=69	=69	=69	=69
1r	2r	2g	2dd]
.	2g	2e	2cc
2r	2f	2d	2dd
[2d	2g	2G	2b
=70	=70	=70	=70
2d]	1e	2A	1a
2c	.	2a	.
2d	1d	2a	2r
2B	.	2g	2dd
=71	=71	=71	=71
1A	2r	2f	2dd
.	2e	4e	2cc
.	.	4f	.
1r	2e	4g	2b
.	.	4e	.
.	2f	[2a	2a
=72	=72	=72	=72
1r	2d	2a]	1b
.	2e	2g#	.
2r	2A	1a	[1a
[2d	[2f	.	.
=73	=73	=73	=73
2d]	2f]	2r	1a]
1c	1e	1a	.
.	.	.	2r
2B	2d	[2g	[2dd
=74	=74	=74	=74
2c	2e	4g]	2dd]
.	.	8f	.
.	.	8e	.
2A	2c	2f#	1cc
1G	2d	1g	.
.	2G	.	2b
=75	=75	=75	=75
2r	2A	2e	2cc
1c	2F	2f	2a
.	1G	2d	1g
2B	.	2g	.
=76	=76	=76	=76
1.A	1r	2a	2.cc
.	.	2.cc	.
.	.	.	4dd
.	2.c	.	2ee
.	.	4b	.
2F	.	2a	2ff
.	4d	.	.
=77	=77	=77	=77
2c	2e	2g	2gg
2A	2f	2.a	2.ff
1B-	2d	.	.
.	.	8g	4ee
.	.	8f	.
.	2d	2g	[2dd
=78	=78	=78	=78
0A	2f	1a	2dd]
.	4e	.	4cc
.	4d	.	4b
.	1e	2r	1cc#
.	.	[2a	.
=79	=79	=79	=79
2r	2d	2a]	1dd
1d	2G	2g	.
.	2r	2f	1r
2c	[2g	2e	.
=80	=80	=80	=80
2B	2g]	2.d	0r
2A	2f	.	.
.	.	4c	.
2G	2e	2B	.
2F	2d	2A	.
=81	=81	=81	=81
1E	2d	2G	0r
.	2c#	1g	.
[1D	2d	.	.
.	2d	4f	.
.	.	4e	.
=82	=82	=82	=82
1D]	2r	1f	1dd
.	2d	.	.
1r	2c	2e	2g
.	2B	2d	[2dd
=83	=83	=83	=83
2r	1A	2e	2dd]
2A	.	2a	2cc
2d	2r	2a	1ff
2d	2d	2b	.
=84	=84	=84	=84
2c	2g	2cc	2ee
2B	2g	2g	1dd
2A	2f	1a	.
2A	2e	.	2cc
=85	=85	=85	=85
1B	2d	0r	1dd
.	2d	.	.
2c	2e	.	1r
2d	2f	.	.
=86	=86	=86	=86
2B	2.g	0r	0r
2.c	.	.	.
.	4f	.	.
.	4e	.	.
4B	4d	.	.
2A	2f	.	.
=87	=87	=87	=87
2G	4e	1r	0r
.	4d	.	.
2F	1d	.	.
1E	.	2r	.
.	2c#	[2g	.
=88	=88	=88	=88
1D	1d	2g]	2r
.	.	2f	1dd
1r	1A	2e	.
.	.	2f	2cc
=89	=89	=89	=89
0r	0r	2d	2b
.	.	2c	2cc
.	.	2f	2a
.	.	4e	2g
.	.	4d	.
=90	=90	=90	=90
1r	1A	1e	2.cc
.	.	.	4dd
1A	1c	1a	1ee
=91	=91	=91	=91
2F	2d	1r	2a
2D	1f	.	2a
1A	.	1a	1cc
.	[2e	.	.
=92	=92	=92	=92
1B-	4e]	2f	2dd
.	4d	.	.
.	1d	2d	1ff
1A	.	1a	.
.	2c#	.	[2ee
=93	=93	=93	=93
1G	2d	1b-	4ee]
.	.	.	4dd
.	2g	.	1dd
2r	2f	1a	.
2A	[2e	.	2cc#
=94	=94	=94	=94
2G	2e]	1r	1dd
2F	1d	.	.
2E	.	2r	2r
2E	2c#	2g	[2gg
=95	=95	=95	=95
1D	1d	2b-	2gg]
.	.	1a	1ff
1r	1r	.	.
.	.	4g	2ee
.	.	4f	.
=96	=96	=96	=96
0r	1r	2e	2cc
.	.	2d	1dd
.	1g	2e	.
.	.	2e	2cc#
=97	=97	=97	=97
2r	1a	1d	1dd
2d	.	.	.
1e	[1g	2r	1r
.	.	2g	.
=98	=98	=98	=98
1d	2g]	1a	1dd
.	2f	.	.
2r	2e	2g	1ee
2A	[2a	2cc	.
=99	=99	=99	=99
2B	4a]	1b	0dd
.	4g	.	.
2c	1g	.	.
1d	.	1a	.
.	2f#	.	.
=100	=100	=100	=100
1G	1g	1b	2r
.	.	.	2dd
1r	2r	1a	2ee
.	[2d	.	2ff
=101	=101	=101	=101
1G	2d]	2r	1gg
.	2.e	2.g	.
1A	.	.	1r
.	4d	8f	.
.	.	8e	.
.	[2c	2f#	.
=102	=102	=102	=102
1G	2c]	1g	1dd
.	2B	.	.
1C	2c	1g	1ee
.	[2c	.	.
=103	=103	=103	=103
1.G	2c]	2.g	2dd
.	1B	.	2dd
.	.	4f	.
.	.	2e	2ee
2F	2A	[2d	2ff
=104	=104	=104	=104
1E	1G	2d]	1.gg
.	.	2c#	.
1D	1A	1d	.
.	.	.	2ff
=105	=105	=105	=105
0A	2r	2c	1ee
.	1c	2A	.
.	.	1a	[1cc
.	[2f	.	.
=106	=106	=106	=106
1c	2f]	2.g	1cc]
.	1e	.	.
.	.	4a	.
1d	.	2b-	[1ff
.	[2d	4a	.
.	.	4g	.
=107	=107	=107	=107
1A	2d]	1a	2ff]
.	2c#	.	1ee
1B-	1d	2f	.
.	.	2g	[2dd
=108	=108	=108	=108
1A	1e	1a	2dd]
.	.	.	2cc#
1D	2.d	2r	1dd
.	.	2a	.
.	8c	.	.
.	8B-	.	.
=109	=109	=109	=109
0r	2A	2cc	1ee
.	2e	2g	.
.	2f	2.a	2.cc
.	2c	.	.
.	.	4g	4b
=110	=110	=110	=110
1r	2d	2f#	2a
.	2e	1g	2g
2r	[1d	.	2a
2D	.	2f#	2a
=111	=111	=111	=111
1.G	1d]	2.g	2.b
.	.	8f	4cc
.	.	8e	.
.	2r	1d	[1dd
2F#	2A	.	.
=112	=112	=112	=112
2G	1.d	[0r	1dd]
2D	.	.	.
2F	.	.	1r
2E	2c#	.	.
=113	=113	=113	=113
4D	2d	0r]	0r
4E	.	.	.
4F	2A	.	.
4G	.	.	.
2A	2c	.	.
4D	2B	.	.
4E	.	.	.
=114	=114	=114	=114
4F	4A	1r	0r
4G	4B	.	.
4A	4c	.	.
4B	4d	.	.
2c	4e	1g	.
.	4f	.	.
2B	[2g	.	.
=115	=115	=115	=115
1A	2g]	1.cc	1r
.	2f#	.	.
1G	2.g	.	1dd
.	.	2b	.
.	4f	.	.
=116	=116	=116	=116
1C	4e	2cc	1.gg
.	4d	.	.
.	2e	2g	.
1D	1d	2b-	.
.	.	2a	2ff#
=117	=117	=117	=117
0r	2r	2g	2gg
.	1d	4f	2dd
.	.	4g	.
.	.	4a	2ff
.	.	4f	.
.	[2g	4g	2ee
.	.	4a	.
=118	=118	=118	=118
0r	2g]	2b-	1.dd
.	2f#	2a	.
.	2g	2b-	.
.	2d	[2a	2dd
=119	=119	=119	=119
1r	2f	2a]	4cc
.	.	.	4b
.	2e	1g	4a
.	.	.	4g
1D	2d	.	1a
.	[2d	2f#	.
=120	=120	=120	=120
1.G	4d]	2g	1b
.	4c	.	.
.	4B	4G	.
.	4A	4A	.
.	2G	4B	2.dd
.	.	4c	.
2F#	2A	[2d	.
.	.	.	4cc
=121	=121	=121	=121
2G	2B	4d]	2b
.	.	4e	.
2D	2d	2.f	1a
2F	4c	.	.
.	4B	4e	.
2E	4A	2c	[2g
.	4G	.	.
=122	=122	=122	=122
0D	0A	0d	2g]
.	.	.	4f
.	.	.	4e
.	.	.	1f#
=123	=123	=123	=123
1E	1G	1B	[0g
1C	1c	1e	.
=124	=124	=124	=124
[0G	[0B	0d	0g]
=125	=125	=125	=125
1G_	1B_	[0d	[0g
1G_	1B_	.	.
=126	=126	=126	=126
0G]	0B]	0d]	0g]
==	==	==	==
*-	*-	*-	*-
!!!CDT: 1525/^1526/-1594/2/2
!!!OCY: Italia
!!!AGN: Mass (Paraphrase)
!!!AST: renaissance, vocal
!!!ASW: Gregorian Mass
!!!PWK: Masses, Book 2
!!!RNB: Cadence finals: G,D,E,F,C
!!!YOR: Le Opere Complete, v. 4, p. 1
!!!YOO: Rome, Italy: Fratelli Scalera
!!!END: 1992//
!!!EED: John Miller
!!!YEC: Copyright 2000, John Miller
!!!YEN: United States of America
!!!YEM: Rights to all derivative electronic formats reserved.
!!!YEM: Refer to licensing agreement for further details.
!!!YEM: This file must be accompanied by the licensing agreement.
!!!YEM: A copy of the licensing agreement may be found at http://www.music-cog.ohio-state.edu/HumdrumDatabases/Palestrina/license.txt
!!!EMD: converted to Humdrum by Bret Aarden
